X: 10813
M: 2/4
L: 1/16
K: F
(AB) |\
c2c2 c2fa | c2c2c2A2 | F2F2G2G2 | AGAB A2AB |\
c2c2 c2fa | c2c2c2f2 | eceg bgec | f2f2f2 H|]
(fe) |\
d2(dc) =B2(BA) | G2G2G2c2 | =Bcde fdcB | c2c2 c2fe |\
ddfd BBdB | G2G2G2c2 | =Bcde fdcB | c2c2 c2 ||
(A_B) |\
c2cc c2c2 | c2a2 f4 | d2b2g2e2 | fefg f2AB |\
c2cc c2c2 | c2a2 f4 | d2b2g2e2 | (g4 f2) ||
z2 |\
f4 gfeg | f4 d3d | f4 gfef | d4 c3B |\


